X:818
T:Godfather, The
R:reel
D:Brian Rooney
D:Folan & Davey
D:Kevin Crawford: d Flute Album
Z:hn-reel-818
M:C|
L:1/8
K:D
~A3B ADFA|BFAF EDFE|DA,~A,2 DFAF|GBAG FDDA|
A2^GB ADFA|BFAF EDFE|DB,~B,2 A,2dB|1 AFEG FDD2:|2 AFEG FDFA||
|:dcdf af~f2|afbf afef|df~f2 Adfa|bfaf e3g|
~f3g afdf|g2fg eB~B2|ABdf fedB|1 AFEG FDFA:|2 AFEG FDD2||
